Papirus/16x16/devices/cpu.svg

<?xml version="1.0" encoding="UTF-8" standalone="no"?>
<svg xmlns="http://www.w3.org/2000/svg" viewBox="0 0 16 16">
  <defs>
    <style type="text/css" id="current-color-scheme">
      .ColorScheme-Text {
        color:#5c616c;
      }
      </style>
  </defs>
  <path 
     style="fill:currentColor;opacity:1"
     class="ColorScheme-Text"
     d="M 4.2265625 0 C 4.1014625 0 4 0.1014525 4 0.2265625 L 4 2 L 2.2851562 2 C 2.1269563 2 2 2.1269563 2 2.2851562 L 2 4 L 0.2265625 4 C 0.1014125 4 -1.8503717e-17 4.1014625 0 4.2265625 L 0 5.7734375 C 0 5.8985375 0.1014525 6 0.2265625 6 L 2 6 L 2 7 L 0.2265625 7 C 0.1014125 7 -1.8503717e-17 7.1014625 0 7.2265625 L 0 8.7734375 C 0 8.8985375 0.1014525 9 0.2265625 9 L 2 9 L 2 10 L 0.2265625 10 C 0.1014125 10 -1.8503717e-17 10.100562 0 10.226562 L 0 11.773438 C 0 11.899437 0.1014525 12 0.2265625 12 L 2 12 L 2 13.714844 C 2 13.872844 2.1269563 14 2.2851562 14 L 4 14 L 4 15.773438 C 4 15.899437 4.1014625 16 4.2265625 16 L 5.7734375 16 C 5.8985375 16 6 15.899437 6 15.773438 L 6 14 L 7 14 L 7 15.773438 C 7 15.899437 7.1014625 16 7.2265625 16 L 8.7734375 16 C 8.8985375 16 9 15.899437 9 15.773438 L 9 14 L 10 14 L 10 15.773438 C 10 15.899437 10.100563 16 10.226562 16 L 11.773438 16 C 11.899437 16 12 15.899437 12 15.773438 L 12 14 L 13.714844 14 C 13.872844 14 14 13.872844 14 13.714844 L 14 12 L 15.773438 12 C 15.899437 12 16 11.899437 16 11.773438 L 16 10.226562 C 16 10.100563 15.899437 10 15.773438 10 L 14 10 L 14 9 L 15.773438 9 C 15.899437 9 16 8.8985375 16 8.7734375 L 16 7.2265625 C 16 7.1014625 15.899437 7 15.773438 7 L 14 7 L 14 6 L 15.773438 6 C 15.899437 6 16 5.8985375 16 5.7734375 L 16 4.2265625 C 16 4.1014625 15.899437 4 15.773438 4 L 14 4 L 14 2.2851562 C 14 2.1269563 13.872844 2 13.714844 2 L 12 2 L 12 0.2265625 C 12 0.1014125 11.899437 -1.8503717e-17 11.773438 0 L 10.226562 0 C 10.100563 0 10 0.1014525 10 0.2265625 L 10 2 L 9 2 L 9 0.2265625 C 9 0.1014125 8.8985375 -1.8503717e-17 8.7734375 0 L 7.2265625 0 C 7.1014625 0 7 0.1014525 7 0.2265625 L 7 2 L 6 2 L 6 0.2265625 C 6 0.1014125 5.8985375 -1.8503717e-17 5.7734375 0 L 4.2265625 0 z "
      />
</svg>

<?xml version="1.0" encoding="UTF-8" standalone="no"?>
<!--Created with Inkscape (http://www.inkscape.org/)-->
<svg id="svg7384" xmlns:rdf="http://www.w3.org/1999/02/22-rdf-syntax-ns#" style="enable-background:new" xmlns="http://www.w3.org/2000/svg" height="16" width="16" version="1.1" xmlns:cc="http://creativecommons.org/ns#" xmlns:dc="http://purl.org/dc/elements/1.1/">
 <metadata id="metadata90">
  <rdf:RDF>
   <cc:Work rdf:about="">
    <dc:format>image/svg+xml</dc:format>
    <dc:type rdf:resource="http://purl.org/dc/dcmitype/StillImage"/>
   </cc:Work>
  </rdf:RDF>
 </metadata>
 <defs id="defs7386">
  <filter id="filter7554" style="fill-interpolation-filters:sRGB">
   <feBlend id="feBlend7556" in2="BackgroundImage" mode="darken"/>
  </filter>
 </defs>
 <g id="layer10" filter="url(#filter7554)" transform="translate(-305 159)">
  <g id="g4421">
   <path id="rect4415" opacity="1" fill="#5c616c" transform="translate(305 -159)" d="m4.2266 0c-0.1251 0-0.2266 0.10145-0.2266 0.22656v1.7734h-1.7148c-0.1582 0-0.2852 0.127-0.2852 0.2852v1.7148h-1.7734c-0.12515 0-0.2266 0.1015-0.2266 0.2266v1.5468c0 0.1251 0.10145 0.2266 0.22656 0.2266h1.7734v1h-1.7734c-0.12515 0-0.2266 0.1015-0.2266 0.2266v1.5468c0 0.1251 0.10145 0.2266 0.22656 0.2266h1.7734v1h-1.7734c-0.12515 0-0.2266 0.101-0.2266 0.227v1.546c0 0.126 0.10145 0.227 0.22656 0.227h1.7734v1.715c0 0.158 0.127 0.285 0.2852 0.285h1.7148v1.773c0 0.126 0.1015 0.227 0.2266 0.227h1.5468c0.1251 0 0.2266-0.101 0.2266-0.227v-1.773h1v1.773c0 0.126 0.1015 0.227 0.2266 0.227h1.5468c0.1251 0 0.2266-0.101 0.2266-0.227v-1.773h1v1.773c0 0.126 0.101 0.227 0.227 0.227h1.546c0.126 0 0.227-0.101 0.227-0.227v-1.773h1.715c0.158 0 0.285-0.127 0.285-0.285v-1.715h1.773c0.126 0 0.227-0.101 0.227-0.227v-1.546c0-0.126-0.101-0.227-0.227-0.227h-1.773v-1h1.773c0.126 0 0.227-0.1015 0.227-0.2266v-1.5468c0-0.1251-0.101-0.2266-0.227-0.2266h-1.773v-1h1.773c0.126 0 0.227-0.1015 0.227-0.2266v-1.5468c0-0.1251-0.101-0.2266-0.227-0.2266h-1.773v-1.7148c0-0.1582-0.127-0.2852-0.285-0.2852h-1.715v-1.7734c0-0.12515-0.101-0.2266-0.227-0.2266h-1.546c-0.126 0-0.227 0.10145-0.227 0.22656v1.7734h-1v-1.7734c0-0.12515-0.1015-0.2266-0.2266-0.2266h-1.5468c-0.1251 0-0.2266 0.10145-0.2266 0.22656v1.7734h-1v-1.7734c0-0.12515-0.1015-0.2266-0.2266-0.2266h-1.5468z"/>
  </g>
 </g>
</svg>
